!!!COM:	la Rue, Pierre de
!!!CDT:	~1452///-1518/11/20
!!!OPR:	Missa Conceptio tua
!!!ONM:	5
!!!OTL:	Agnus Dei
!!!AGN:	Mass; Agnus Dei
!!!SCT:	Rue1006e
!!!SCA:	Rue1006e
!!!voices-OPR:	5
!!!voices:	5
**kern	**kern	**kern	**kern	**kern
*Ivox	*Ivox	*Ivox	*Ivox	*Ivox
*I"Bassus	*I"Tenor2	*I"Tenor1	*I"Contra	*I"Discantus
*I'B	*I'T2	*I'T1	*I'C	*I'D
*staff5	*staff4	*staff3	*staff2	*staff1
*>[A,B]	*>[A,B]	*>[A,B]	*>[A,B]	*>[A,B]
*>A	*>A	*>A	*>A	*>A
*clefF4	*clefF4	*clefGv2	*clefGv2	*clefG2
*k[]	*k[]	*k[]	*k[]	*k[]
*M3/1	*M3/1	*M3/1	*M3/1	*M3/1
*met(O)	*met(O)	*met(O)	*met(O)	*met(O)
!!section: Agnus Dei I
!!!OMD: Agnus Dei I
!	!	!LO:TX:X=-40:Z=28:t=Fuga in dyathesarum 	!	!
!	!	!LO:TX:X=-40:Z=8:t=Canon at the lower fourth (one breve)	!	!
=1-	=1-	=1-	=1-	=1-
1.D	0.r	0.r	0D	0.r
2C/	.	.	.	.
1BB	.	.	1D	.
=2	=2	=2	=2	=2
1AA	0.r	0.r	1C	0.r
2D\	.	.	0F	.
2.D\	.	.	.	.
4C/	.	.	.	.
4BB/	.	.	.	.
4AA/	.	.	.	.
=3	=3	=3	=3	=3
2GG/	0.r	0.r	2.G/	0d
1D	.	.	.	.
.	.	.	4E/	.
.	.	.	4F/	.
.	.	.	4G/	.
2C/	.	.	1A	.
1BB	.	.	.	1d
.	.	.	2G#i/	.
=4	=4	=4	=4	=4
1AA	0.r	0.r	2A/	1c
.	.	.	2.A/	.
2D\	.	.	.	0f
.	.	.	4G/	.
2.D\	.	.	4F/	.
.	.	.	4E/	.
.	.	.	1D	.
4C/	.	.	.	.
4BB/	.	.	.	.
4AA/	.	.	.	.
=5	=5	=5	=5	=5
2GG/	0.r	0D	2r	2.g/
1D	.	.	2D/	.
.	.	.	.	4e/
.	.	.	1A	4f/
.	.	.	.	4g/
2C/	.	.	.	1a
1BB	.	1D	1B	.
.	.	.	.	2g#i/
=6	=6	=6	=6	=6
1AA	0AA	1C	1c	1a
2r	.	0F	2c\	2r
2DD/	.	.	1A	2.a/
1DD	1AA	.	.	.
.	.	.	.	4g/
.	.	.	4d\	2f/
.	.	.	4c\	.
=7	=7	=7	=7	=7
1EE	1GG	1G	4B\	4e/
.	.	.	4A/	4d/
.	.	.	2G/	4c/
.	.	.	.	4B/
2FF/	0C	2.F/	2.A/	2A/
1AA	.	.	.	2.c/
.	.	4G/	4G/	.
.	.	2A/	2F/	.
.	.	.	.	4d/
2C/	.	[2A/	2E/	2e/
=8	=8	=8	=8	=8
1BB	1D	2A/]	2F/	2d/
.	.	2G/	2D/	2B/
1.AA	2.C/	1A	1E	2c/
.	.	.	.	2.e/
.	4D\	.	.	.
.	2E\	1r	1r	.
.	.	.	.	4d/
2GG/	[2E\	.	.	2B/
=9	=9	=9	=9	=9
1FF	2E\]	1A	0.r	2r
.	2D\	.	.	2f/
1EE	1E	1G	.	2g/
.	.	.	.	2.e/
1r	1r	2E/	.	.
.	.	.	.	4d/
.	.	2F/	.	[2d/
=10	=10	=10	=10	=10
1r	1E	1G	2r	2d/]
.	.	.	2G/	2c#i/
2r	1D	2F/	2A/	1d
1GG	.	2D/	2.B\	.
.	2BB/	1E	.	1r
.	.	.	4c\	.
2AA/	2C/	.	2A/	.
=11	=11	=11	=11	=11
2BB/	1D	1D	2G/	1r
2GG/	.	.	2.B\	.
1AA	2C/	1r	.	1e
.	.	.	4A/	.
.	2AA/	.	1A	.
1EE	1BB	1r	.	1g
.	.	.	2G/	.
=12	=12	=12	=12	=12
2r	1AA	0.r	2.A/	2f/
2AA/	.	.	.	1e
.	.	.	4G/	.
1AA	1r	.	2E/	.
.	.	.	2F/	4d/
.	.	.	.	4c/
2GG/	1r	.	2G/	2B/
[2AA/	.	.	[2E/	2A/
=13	=13	=13	=13	=13
4AA/]	0.r	1r	4E/]	2r
4GG/	.	.	4D/	.
2FF/	.	.	1D	2d/
1EE	.	1r	.	2e/
.	.	.	2C#i/	2g/
[1DD	.	1D	[1D	2f/
.	.	.	.	[2d/
=14	=14	=14	=14	=14
1DD]	1r	2.F/	1D]	4d/]
.	.	.	.	4e/
.	.	.	.	4f/
.	.	4E/	.	4g/
2r	1r	1D	1r	1.a
2DD/	.	.	.	.
[1FF	1AA	1C	[1A	.
.	.	.	.	[2f/
=15	=15	=15	=15	=15
2FF/]	2.C/	0F	2A/]	2f/]
2FF/	.	.	2A/	4e/
.	4BB/	.	.	4d/
1FF	1AA	.	1A	2.c/
.	.	.	.	4d/
1EE	1GG	1G	2B\	1e
.	.	.	2G/	.
=16	=16	=16	=16	=16
2FF/	0C	2.F/	2.A/	2A/
1AA	.	.	.	2.c/
.	.	4G/	4G/	.
.	.	2A/	2F/	.
.	.	.	.	4d/
2C/	.	1A	2E/	2e/
1BB	1D	.	2F/	2d/
.	.	2G/	2D/	2B/
=17	=17	=17	=17	=17
1.AA	2.C/	0A	0E	0c
.	4D\	.	.	.
.	2E\	.	.	.
2GG/	1E	.	.	.
1FF	.	1A	1r	1f
.	2D\	.	.	.
=18	=18	=18	=18	=18
0.EE	0E	1.G	2r	0g
.	.	.	2E/	.
.	.	.	2.G/	.
.	.	2E/	.	.
.	.	.	4A/	.
.	1E	1G	2B\	1e
.	.	.	2c\	.
=19	=19	=19	=19	=19
1r	1.D	0F	1d	0f
1r	.	.	2.d\	.
.	2BB/	.	.	.
.	.	.	4c\	.
1DD	1D	1F	2A/	1d
.	.	.	2B\	.
=20	=20	=20	=20	=20
2AA/	0C	1E	2c\	2e/
2EE/	.	.	1G	2.g/
2.C/	.	2C/	.	.
.	.	.	.	4f/
.	.	2D/	2G/	4e/
4BB/	.	.	.	4d/
4AA/	1C	1E	1A	2.c/
4GG/	.	.	.	.
2AA/	.	.	.	.
.	.	.	.	4B/
=21	=21	=21	=21	=21
2BB/	1BB	1D	2G/	1d
2GG/	.	.	2.B\	.
2BB/	2GG/	1r	.	1r
.	.	.	4A/	.
2C/	2AA/	.	1A	.
1D	1BB	1r	.	1d
.	.	.	2G#i/	.
=22	=22	=22	=22	=22
0E	1AA	1r	1A	2c/
.	.	.	.	1c
.	1r	1r	2r	.
.	.	.	2A/	4B/
.	.	.	.	4A/
1EE	1r	1E	2.G/	2B/
.	.	.	.	2e/
.	.	.	4A/	.
=23	=23	=23	=23	=23
1r	1r	1G	1B	2d/
.	.	.	.	1e
1r	1r	2E/	2c\	.
.	.	2F/	4B\	4d/
.	.	.	4A/	4c/
2r	1BB	2.G/	2G/	1B
[2GG/	.	.	[2B\	.
.	.	4F/	.	.
=24	=24	=24	=24	=24
2GG/]	1D	2D/	2B\]	2r
2FF/	.	2F/	2A/	2a/
2GG/	2BB/	1E	2B\	2g/
2AA/	2C/	.	1A	2e/
1DD	2.D\	2D/	.	2.f/
.	.	[2F/	2A/	.
.	4C/	.	.	8e/L
.	.	.	.	8d/J
=25	=25	=25	=25	=25
1AA	4AA/	4F/]	2c\	4c/
.	2.C/	4E/	.	4d/
.	.	2C/	2A/	4e/
.	.	.	.	4f/
1GG	1BB	2D/	2B\	1g
.	.	2E/	2G/	.
2FF/	2AA/	2.F/	2.A/	2.c/
[2AA/	[2C/	.	.	.
.	.	4E/	4G/	4d/
=26	=26	=26	=26	=26
4AA/]	4C/]	2C/	2E/	4e/
4GG/	4BB/	.	.	4f/
2EE/	2GG/	1G	1c	4g/
.	.	.	.	4f/
2CC/	2AA/	.	.	4e/
.	.	.	.	4d/
2DD/	2BB/	2F/	2B\	1d
1AA	2.C/	1E	1A	.
.	.	.	.	2c#i/
.	4BB/	.	.	.
=27	=27	=27	=27	=27
2BB-i/	2GG/	[0.Dl	2G/	[0.dl
2GG/	1D	.	1B-i	.
2DD/	.	.	.	.
2FF/	2C/	.	2A/	.
1GG	1BB-i	.	4G/	.
.	.	.	4F/	.
.	.	.	2G/	.
=28	=28	=28	=28	=28
0.DDl	0.AAl	0.D]	0.Al	0.d]
!!LO:LB:i:g=z
=29||	=29||	=29||	=29||	=29||
*>B	*>B	*>B	*>B	*>B
*clefF4	*clefF4	*clefGv2	*clefGv2	*clefG2
*k[]	*k[]	*k[]	*k[]	*k[]
*M2/1	*M2/1	*M2/1	*M2/1	*M2/1
*met(C2)	*met(C2)	*met(C2)	*met(C2)	*met(C2)
!!section: Agnus Dei II
!!!OMD: Agnus Dei II
2.DD/	1AA	0D	0r	0r
4EE/	.	.	.	.
2FF/	2AA/	.	.	.
[2GG/	[2BB/	.	.	.
=30.	=30.	=30.	=30.	=30.
4GG/]	4BB/]	0D	0r	0r
4AA/	4C/	.	.	.
2.BB/	2.D\	.	.	.
4AA/	4C/	.	.	.
4GG/	4BB/	.	.	.
4FF/	4AA/	.	.	.
=31	=31	=31	=31	=31
2.EE/	2.GG/	2.C/	0r	0r
4FF/	4AA/	4D/	.	.
2GG/	2BB/	2E/	.	.
[2AA/	[2C/	[2F/	.	.
=32.	=32.	=32.	=32.	=32.
4AA/]	4C/]	4F/]	0r	0r
4GG/	4BB/	4G/	.	.
4FF/	2C/	2.A/	.	.
4EE/	.	.	.	.
[1DD	1D	.	.	.
.	.	4G/	.	.
.	.	4F/	.	.
.	.	4E/	.	.
=33	=33	=33	=33	=33
1DD]	2AA/	1D	2.D/	0d
.	2.D\	.	.	.
.	.	.	4E/	.
1r	.	1r	2F/	.
.	4C/	.	.	.
.	4BB/	.	[2G/	.
.	4AA/	.	.	.
=34.	=34.	=34.	=34.	=34.
0r	0GG	0r	4G/]	0d
.	.	.	4A/	.
.	.	.	2.B\	.
.	.	.	4A/	.
.	.	.	4G/	.
.	.	.	4F/	.
=35	=35	=35	=35	=35
0r	2.C/	0r	2.E/	0c
.	4D\	.	4F/	.
.	2E\	.	2G/	.
.	[2F\	.	[2A/	.
=36.	=36.	=36.	=36.	=36.
0r	4F\]	0r	4A/]	[0f
.	4G\	.	4B\	.
.	2.A\	.	2.c\	.
.	4G\	.	4B\	.
.	4F\	.	4A/	.
.	4E\	.	4G/	.
=37	=37	=37	=37	=37
0r	0D	2r	2.F/	0f]
.	.	2.A/	.	.
.	.	.	4G/	.
.	.	.	2A/	.
.	.	4G/	.	.
.	.	2F/	[2B\	.
=38.	=38.	=38.	=38.	=38.
0r	0r	2E/	4B\]	0g
.	.	.	4c\	.
.	.	2D/	1d	.
.	.	1E	.	.
.	.	.	2c#i\	.
=39	=39	=39	=39	=39
1.DD	0r	2D/	0d	0f
.	.	1A	.	.
2EE/	.	2G/	.	.
=40.	=40.	=40.	=40.	=40.
2FF/	2r	2.F/	0r	0a
2DD/	2.A\	.	.	.
.	.	8E/L	.	.
.	.	8D/J	.	.
2.AA/	.	2.C/	.	.
.	4G\	.	.	.
.	2F\	.	.	.
4BB/	.	4D/	.	.
=41	=41	=41	=41	=41
2C/	2E\	2AA/	1r	0a
2D\	2D\	1D	.	.
1AA	1E	.	1A	.
.	.	2C#i/	.	.
=42.	=42.	=42.	=42.	=42.
1DD	1D	1D	2A/	0r
.	.	.	1A	.
2r	1AA	2r	.	.
[2AA/	.	2E/	[2c\	.
=43	=43	=43	=43	=43
2AA/]	1r	2F/	2c\]	0r
2GG/	.	1E	2B\	.
1FF	1AA	.	1A	.
.	.	2D/	.	.
=44.	=44.	=44.	=44.	=44.
2EE/	2BB/	2E/	2.G/	0r
2C/	2E\	2A/	.	.
.	.	.	4A/	.
2BB/	2D\	2G/	2B\	.
[2AA/	[2C/	2F/	[2c\	.
=45	=45	=45	=45	=45
2AA/]	4C/]	2E/	4c\]	0a
.	4BB/	.	4d\	.
2GG/	4AA/	1E	2B\	.
.	4GG/	.	.	.
1FF	1AA	.	1A	.
.	.	2D/	.	.
=46.	=46.	=46.	=46.	=46.
0EE	2BB/	0E	2r	0g
.	2.GG/	.	2c\	.
.	.	.	2B\	.
.	4AA/	.	.	.
.	2BB/	.	[2G/	.
=47	=47	=47	=47	=47
2r	2.C/	2r	4G/]	0e
.	.	.	4F/	.
2.E\	.	2.G/	4G/	.
.	4BB/	.	4A/	.
.	2GG/	.	2B\	.
4D\	.	4F/	.	.
4C/	[2AA/	4E/	[2c\	.
4BB/	.	4D/	.	.
=48.	=48.	=48.	=48.	=48.
2AA/	2AA/]	4C/	2c\]	0f
.	.	4BB/	.	.
2GG/	2BB/	1E	2B\	.
1FF	2C/	.	1A	.
.	2AA/	2D/	.	.
=49	=49	=49	=49	=49
[0EE	2BB/	[0E	[0G	[0g
.	2C/	.	.	.
.	2BB/	.	.	.
.	[2E\	.	.	.
=50.	=50.	=50.	=50.	=50.
0EE]	2E\]	0E]	1G]	0g]
.	4D\	.	.	.
.	4C/	.	.	.
.	2BB/	.	1B	.
.	2C/	.	.	.
=51	=51	=51	=51	=51
0r	0D	0r	2A/	0f
.	.	.	2B\	.
.	.	.	2A/	.
.	.	.	[2d\	.
=52.	=52.	=52.	=52.	=52.
0r	1AA	1r	2d\]	0e
.	.	.	4c\	.
.	.	.	4B\	.
.	2r	2.A/	1c	.
.	2AA/	.	.	.
.	.	4G/	.	.
=53	=53	=53	=53	=53
0DD	2BB/	4F/	1r	0d
.	.	4E/	.	.
.	4AA/	1G	.	.
.	4GG/	.	.	.
.	1AA	.	1A	.
.	.	2F#i/	.	.
=54.	=54.	=54.	=54.	=54.
0GG	1GG	1G	2B\	0d
.	.	.	1B	.
.	1BB	[1D	.	.
.	.	.	4A/	.
.	.	.	4G/	.
=55	=55	=55	=55	=55
0DD	2AA/	1D]	2F/	0r
.	2GG/	.	1G	.
.	1AA	1D	.	.
.	.	.	2F#i/	.
=56.	=56.	=56.	=56.	=56.
[0GG	2.GG/	2E/	2.G/	0r
.	.	2D/	.	.
.	4AA/	.	4F/	.
.	4BB/	[1G	4G/	.
.	4C/	.	4A/	.
.	[2D\	.	[2B-i\	.
=57	=57	=57	=57	=57
0GG]	4D\]	1G]	4B-\]	0d
.	4C/	.	4A/	.
.	4BB/	.	4G/	.
.	4AA/	.	4F/	.
.	1BB	1D	1G	.
=58.	=58.	=58.	=58.	=58.
[0DD	[0AA	2D/	[0A	0f
.	.	1F	.	.
.	.	4E/	.	.
.	.	4D/	.	.
=59	=59	=59	=59	=59
0DD]	0AA]	2A/	0A]	0d
.	.	2.D/	.	.
.	.	4E/	.	.
.	.	2F/	.	.
=60.	=60.	=60.	=60.	=60.
0r	0r	2G/	0r	0d
.	.	2.D/	.	.
.	.	4E/	.	.
.	.	4F/	.	.
.	.	4G/	.	.
=61	=61	=61	=61	=61
0r	[0AA	2A/	1r	0c
.	.	4G/	.	.
.	.	4F/	.	.
.	.	1E	2r	.
.	.	.	[2A/	.
=62.	=62.	=62.	=62.	=62.
[0DD	0AA]	0D	2A/]	[0f
.	.	.	1A	.
.	.	.	[2d\	.
=63	=63	=63	=63	=63
0DD]	0AA	1D	2d\]	0f]
.	.	.	4c\	.
.	.	.	4B\	.
.	.	1D	1A	.
=64.	=64.	=64.	=64.	=64.
1GG	0BB	2E/	[0G	[0g
.	.	2D/	.	.
[1GG	.	2.G/	.	.
.	.	4F/	.	.
=65	=65	=65	=65	=65
2GG/]	0GG	2E/	0G]	0g]
2FF/	.	1D	.	.
1EE	.	.	.	.
.	.	2C#i/	.	.
=66.	=66.	=66.	=66.	=66.
[0DD	0AA	0D	2r	0f
.	.	.	1d	.
.	.	.	4c\	.
.	.	.	4B\	.
=67	=67	=67	=67	=67
0DD]	2r	1r	1A	0a
.	1D	.	.	.
.	.	2r	2.A/	.
.	4C/	[2A/	.	.
.	4BB/	.	4B\	.
=68.	=68.	=68.	=68.	=68.
0r	1AA	2A/]	1c	0a
.	.	4G/	.	.
.	.	4F/	.	.
.	2.AA/	1E	1c	.
.	4BB/	.	.	.
=69	=69	=69	=69	=69
0r	2C/	2.E/	2.G/	0g
.	2.GG/	.	.	.
.	.	4F/	4A/	.
.	.	2G/	4B\	.
.	4AA/	.	4c\	.
.	4BB/	[2D/	2d\	.
.	4C/	.	.	.
=70.	=70.	=70.	=70.	=70.
0r	2D\	4D/]	1A	0f
.	.	4E/	.	.
.	2AA/	2.F/	.	.
.	1D	.	2A/	.
.	.	4G/	.	.
.	.	[2A/	[2d\	.
=71	=71	=71	=71	=71
0r	0AA	2A/]	2d\]	0e
.	.	4G/	4c#i\	.
.	.	4F/	4B\	.
.	.	1E	1c#i	.
=72.	=72.	=72.	=72.	=72.
2.DD/	2r	1F	2.d\	0d
.	2.D\	.	.	.
4EE/	.	.	4c\	.
2FF/	.	1r	2A/	.
.	4C/	.	.	.
[2GG/	2BB/	.	2B\	.
=73	=73	=73	=73	=73
2GG/]	1AA	1r	1c	0r
2FF#i/	.	.	.	.
2.GG/	[1GG	2r	1B	.
.	.	[2G/	.	.
4AA/	.	.	.	.
=74.	=74.	=74.	=74.	=74.
2BB/	1GG]	4G/]	0r	0r
.	.	4F/	.	.
1C	.	2E/	.	.
.	1GG	1D	.	.
2BB/	.	.	.	.
=75	=75	=75	=75	=75
0C	2r	1C	1r	0e
.	2.G\	.	.	.
.	.	1r	2.G/	.
.	4F\	.	.	.
.	2E\	.	.	.
.	.	.	4A/	.
=76.	=76.	=76.	=76.	=76.
0GG	2D\	1r	2B\	0g
.	2C/	.	1c	.
.	1D	1G	.	.
.	.	.	2B\	.
=77	=77	=77	=77	=77
0C	[0C	0G	[0c	0e
=78.	=78.	=78.	=78.	=78.
0FF	0C]	0A	0c]	0f
=79	=79	=79	=79	=79
1r	0C	1G	1r	0e
1AA	.	1A	1c	.
=80.	=80.	=80.	=80.	=80.
2BB-i/	1r	2F/	2d\	[0d
2.GG/	.	2G/	2B-i\	.
.	1AA	1D 1A	1A	.
4FF/	.	.	.	.
2FF/	.	.	.	.
=81	=81	=81	=81	=81
2GG/	2BB-i/	[0D	2G/	0d]
2.D\	1GG	.	1B-i	.
4C/	.	.	.	.
4BB-i/	2FF/	.	2A/	.
4AA/	.	.	.	.
=82.	=82.	=82.	=82.	=82.
2GG/	2GG/	0D]	2B-i\	[0dl
4FF/	2.D\	.	4A/	.
4EE/	.	.	4G/	.
2DD/	.	.	1F	.
.	4C/	.	.	.
2FF/	4BB-i/	.	.	.
.	4AA/	.	.	.
=83	=83	=83	=83	=83
2GG/	2GG/	[0Dl	2r	0d_
2AA/	2FF/	.	2A/	.
2BB-i/	2GG/	.	2G/	.
2AA/	2AA/	.	2F/	.
=84.	=84.	=84.	=84.	=84.
1.GG	2BB-i/	0D_	2G/	0d_
.	2GG/	.	1B-i	.
.	1G	.	.	.
4FF/	.	.	4A/	.
4EE/	.	.	4G/	.
=85	=85	=85	=85	=85
0DDl	0Fl	0D]	0Al	0d]
==	==	==	==	==
*-	*-	*-	*-	*-
!!!RDF**kern: l=long note in original notation
!!!RDF**kern: i=editorial accidental
!!!ENC:	Chris Gage 01-03-2013
!!!END:	2013/07/24/
!!!EED:	Jesse Rodin
!!!EEV:	2013/08/02/
!!!ONB:	Translated from MusicXML and edited on 2013/08/02/ by Craig Sapp
!!muse2ps: T^@{OPR}^u^@{ONM}{. }@{OTL}^C^@{COM}^i2I150v85,85,85,85,130Q16
